X:450
T: Schatz, ach Schatz,
N: T0338
O: Luxemburg
S: Singendes Volk, Esch-Alzette, 1937 posth.]
N: Reuland, Katarina, 1910
N: (165b)- Junglinster, Vater des Verfassers, um 1890
R: Abschieds- und Wanderlieder, Heimatlieder,  Liebeslied]
M: 3/4
L: 1/16
K: D
D2F2 | A4A2A2B2B2 | A2G2F4
D2F2 | A4A2A2B2B2 | A2G2F4
A4 | F2A2A2d2d2
dd | c2BBA2d2F2
A2 | B2A2c2B2c2
B2 | A2G2F4
A4 | F2A2A2d2d2
dd | c2BBA2e2F2
A2 | B2A2c2B2c2
B2 | A2G2F4

@@@ Tune index: 8504
